X: 1346
T: Johnny's Welcome Home
R:Reel
N:Collected by McFadden
B:O'Neill's 1346
M:C|
L:1/8
K:A
A(E {F}(3EDE )c(E {F}(3EDE)|GFEF GFED|(3EFG (AB) cded|cBcde2fg|
abaf gbge|dBGB ABcd|(3efg (ed) cABG|AGEG"H"A2ea||
{b}agea {b}agea|{b}agefg2fg|agbg aged|{d}cBcde2(fg)|
abaf gbge|dBGB ABcd|(3efg (ed) cABG|AGEG Ad"D.C."cB|]


